assets/img/hero-logo-3.svg

<svg width="265" height="68" viewBox="0 0 265 68" fill="none" xmlns="http://www.w3.org/2000/svg">
<path d="M15.1222 52.8932H23.7698C34.0154 52.8932 42.381 46.9714 42.381 33.624C42.381 20.2766 34.0154 14.2609 23.7698 14.2609H15.1222V52.8932ZM24.3338 66.8986H0.270874V0.255493H24.4278C44.4489 0.255493 57.8903 13.0389 57.8903 33.624C57.8903 54.2091 44.4489 66.8986 24.3338 66.8986Z" fill="black"/>
<path d="M110.771 66.8986H68.473V0.255493H110.677V14.2609H83.3243V26.9503H108.139V40.0157H83.3243V52.7992H110.771V66.8986Z" fill="black"/>
<path d="M149.863 47.1594L165.748 0.255493H181.54L157.195 66.8986H141.873L117.435 0.255493H133.79L149.863 47.1594Z" fill="black"/>
<path d="M176.294 58.063C176.294 52.7992 180.618 48.4754 185.882 48.4754C191.146 48.4754 195.563 52.7992 195.563 58.063C195.563 63.2327 191.146 67.7445 185.882 67.7445C180.618 67.7445 176.294 63.2327 176.294 58.063Z" fill="black"/>
<path d="M264.812 0.255493L243.381 33.718L265 66.8986H246.953L233.793 45.2795L220.728 66.8986H203.245L224.77 33.53L203.245 0.255493H221.104L234.263 21.8745L247.423 0.255493H264.812Z" fill="#7000FF"/>
</svg>

<svg width="265" height="68" fill="none" xmlns="http://www.w3.org/2000/svg"><path d="M15.122 52.893h8.648c10.245 0 18.611-5.922 18.611-19.269 0-13.347-8.366-19.363-18.611-19.363h-8.648v38.632ZM24.334 66.9H.27V.255h24.157c20.02 0 33.462 12.784 33.462 33.369S44.45 66.899 24.334 66.899ZM110.771 66.899H68.473V.255h42.204v14.006H83.324v12.69h24.815v13.065H83.324v12.783h27.447v14.1ZM149.863 47.16 165.748.254h15.792L157.195 66.9h-15.322L117.435.255h16.355l16.073 46.904ZM176.294 58.063c0-5.264 4.324-9.588 9.588-9.588 5.264 0 9.681 4.324 9.681 9.588 0 5.17-4.417 9.681-9.681 9.681-5.264 0-9.588-4.511-9.588-9.681Z" fill="#000"/><path d="m264.812.255-21.431 33.463L265 66.898h-18.047l-13.16-21.618-13.065 21.619h-17.483L224.77 33.53 203.245.255h17.859l13.159 21.62 13.16-21.62h17.389Z" fill="#7000FF"/></svg>
